X:1
T:Title
%%score ( 1 2 ) ( 3 4 )
L:1/8
Q:1/4=120
M:6/8
K:Eb
V:1 treble nm="Grand Piano, Treble"
V:2 treble 
V:3 bass nm="Grand Piano, Bass"
V:4 bass 
V:1
 z3 z2 E | [EG]2 [EG] [EG]2 E | [GB]2 [GB] [GB]2 [GB] | [Ge]2 [Ge] [Fd]2 [Ec] | [DB]3- [DB]2 [AB] | %5
w: 1.~Go~|forth,~ ye~ mes sen|ger~ of~ light,~ Led~|by~ the~ Ho ly~|Ghost;~ * Ar|
 [GB]2 [GB] [GB]2 [FA] | [EG]2 [EG] [EG]2 [EG] | [EF]2 [EF] [EG]2 [E=A] | %8
w: rayed~ in~ gar ments~|clean~ and~ white,~ And~|faith ful~ at~ your~|
 B3- [AB]2[Q:1/4=120] [AB][Q:1/4=12] | [GB]2 [GB] [EG]2 [FA] | [GB]2 [GB] [Ge]2 [Be] | %11
w: post;~ * Oh,~|tell~ of~ Je sus'~|love~ to~ thee,~ That~|
 [Af]2 [Ae] [Ae]2 [Ac] | [GB]3- [GB]2 [EG] | [FA]2 [=EG] [FA]2 [Dc] | [EB]2 [FA] [EG]2 [EF] | %15
w: all~ who~ hear~ may~|know,~ * His~|pre cious~ blood~ can~|set~ them~ free,~ And~|
 E2 [Ee] [Ge]2 [Fd] | [Ge]3- [Ge]2 [EG] | [EG]2 [EG] [EG]2 [EG] | [EG]2 [DF] [DF]2 [DF] | %19
w: wash~ them~ white~ as~|snow.~ * *|||
 [DB]2 [DB] [DA]2 [FA] | [EG]3- [EG]2 [EG] | [GB]2 [GB] [Ge]2 [GB] | %22
w: |||
 [Ac]2 [Ac] [Ae]2[Q:1/4=120] [Ac][Q:1/4=12] | [GB]2 [EG] [DG]2 [DF] | E6 |] %25
w: |||
V:2
 x6 | x6 | x6 | x6 | x6 | x6 | x6 | x6 | D3 z3 | x6 | x6 | x6 | x6 | x6 | x6 | x6 | x6 | x6 | x6 | %19
 x6 | x6 | x6 | x6 | x6 | x6 |] %25
V:3
 z3 z2 [E,G,] | [E,B,]2 [E,B,] [E,B,]2 [E,G,] | [E,E]2 [E,E] [E,E]2 [E,E] | %3
 [E,B,]2 [E,B,] [F,B,]2 [F,=A,] | [B,,B,]3- [B,,B,]2 [B,D] | [E,E]2 [E,E] [E,B,]2 [B,,B,] | %6
 [E,B,]2 [E,B,] [E,B,]2 [E,B,] | [F,=A,]2 [F,A,] [F,B,]2 [F,C] | B,3 D2 [B,D] | %9
 [E,E]2 [E,E] [E,B,]2 [E,B,] | [E,E]2 [E,E] [E,B,]2 [G,_D] | [A,C]2 [A,C] [A,C]2 [A,E] | %12
 [E,E]3- [E,E]2 [E,B,] | [B,,B,]2 [B,,B,] [B,,B,]2 [B,,A,] | [C,G,]2 [D,B,] [E,B,]2 [F,=A,] | %15
 [G,B,]2 [A,C] B,2 [B,,B,] | [E,B,]3- [E,B,]2 [E,B,] | [E,B,]2 [E,B,] [E,B,]2 [E,B,] | %18
 [B,,B,]2 [B,,B,] [B,,B,]2 [B,,B,] | [B,,F,]2 [B,,F,] [B,,F,]2 [D,B,] | [E,B,]3- [E,B,]2 [E,B,] | %21
 [E,E]2 [E,E] [E,B,]2 [E,E] | [A,E]2 [A,E] [A,C]2 [A,E] | [B,E]2 [B,,B,] [B,,B,]2 [B,,A,] | %24
 [E,G,]6 |] %25
V:4
 x6 | x6 | x6 | x6 | x6 | x6 | x6 | x6 | B,,6 | x6 | x6 | x6 | x6 | x6 | x6 | x6 | x6 | x6 | x6 | %19
 x6 | x6 | x6 | x6 | x6 | x6 |] %25

